X: 30293
T: Old Man Dancing
R: reel
M: 4/4
K: Fmajor
K: Bbmin
B2 de faaa|~b3 c' bafe|B2 de faaa|~g3 a fecB|
B2 de faaa|b2 bc' bafe|b3 c' bafe|~g3 a bafe:|
Acde a3 A|afec afec|AA c/d/e f2 fe|fgge ~a3 e|
Acde a3 A|afec afec|ffeg ggea|a4 bafe:|

